X: 39
T: No_45_Closing_Song_of_the_Adolescence_Ceremony.krn
N: Derived from No_45_Closing_Song_of_the_Adolescence_Ceremony.krn
%%abc-version 2.0
%%abcx-abcm2ps-target-version 5.9.1 (29 Sep 2008)
%%abc-creator hum2abc beta
%%abcx-conversion-date 2019/03/15 08:35:01
%%humdrum-veritas 124660615
%%humdrum-veritas-data 3092068460
%%linebreak <none>
%%barnumbers 0
L: 1/8
M: 2/4
K: Eb clef=bass
[K:clef=bass][M:2/4]F,2B,3/G,/ | 
(F,3E,) | 
E,F,/ z/ E,E, | 
E,3z ]|:  
E,2B,3/G,/ | 
F,3E, | 
E,F,/ z/ E,E, | 
E,3z | 
E,2B,3/G,/ | 
F,3E, | 
E,F,/ z/ E,E, | 
E,3z | 
B,2B,B, | 
B,7/G,/ | 
F,2B,3/G,/ | 
F,7/E,/ | 
(E,F,/) z/ E,E, | 
E,2z2 :|]  



